X:1
T:I goe before my darling
T:Thomas Morley
T:Source : First book of Canzonets to two voices---London---Th.Este---1595. Editor : André Vierendeels (16/11/16).
T:Notes : Original clefs : C1, C1 Editorial accidentals above the staff
T:I goe before my darling
T:©
T:©
T:©
C:Thomas Morley
Z:©
%%score [ 1 2 ]
L:1/8
Q:1/4=100
M:4/4
K:F
V:1 treble nm="Soprano 1" snm="S 1"
V:2 treble nm="Soprano 2" snm="S 2"
V:1
 c4 F2 A2 | G2 B2 AGFE | DE F4 E2 | F2 f2 c2 e2 | d3 f e2 c2- | c2 =B2 c2 c2 | F2 A2 GA B2- | %7
w: I goe be-|fore my dar- * * *||ling, I goe be-|fore my dar- *|* * ling, I|goe be- fore my dar-|
 BA AG/F/ G4 | A4 F4 | C2 E2 DE F2- | F2 E2 F2 c2 | F2 A2 G2 B2 | AGFG AB c2- | c2 =B2 c4 | %14
w: |ling, I|goe be- fore my dar|_ _ ling, I|goe be- fore my|dar- * * * * * *|* * ling,|
 z2 G2 C2 E2 | DEFD EF G2- | GF F4 E2 | F8 | c2 c2 A2 AB | c2 A3 G c2 | c2 =B2 c4 | z2 FG AB c2 | %22
w: I goe be-|fore _ _ _ my _ da-||ling,|fol- low thou to the|bowre in the close|al- * ley,|ther wee will to- geth-|
 A2 FG AB c2 | A2 A2 G2 B2 | A4 G4 |[M:6/4] c6 A2 B2 G2 | A6 F2 G2 E2 | F3 G A2 c2 =B4 | c8 z4 | %29
w: er, sweet- ly kisse each ey-|ther, and like two|wan- tons,|dal- ly dal- ly|dal- ly dal- ly|dal- ly dal- ly dal-|ly,|
 G2 A2 B2 G2 A2 B2 | c6 B2 A2 G2 | B2 A2 G2 F2 G4 |[M:4/4] A4 FGAB | c2 A2 FGAB | c2 A2 z2 F2 | %35
w: dal- ly dal- ly dal- ly|dal- ly dal- ly|dal- ly dal- ly dal-|ly, ther wee will to-|ge- ther sweet- ly kisse each|ey- ther, and|
 E2 G2 G2 ^F2 |[M:6/4] G8 z4 | z12 | c6 A2 B2 G2 | A3 G F2 A2 G4 | C8 C2 D2 | _E2 C2 D2 E2 F4 | %42
w: like two wan- *|tons,||dal- ly dal- ly|dal- ly dal- ly dal-|ly dal- ly|dal- ly dal- ly dal-|
 C4 F6 E2 | D2 F2 E2 D2 E4 | F12 |] %45
w: ly da- ly|dal- ly dal- ly dal-|ly.|
V:2
 z8 | z4 c4 | F2 A2 G2 B2 | AGFG AB c2- | c2 =B2 c4 | z2 G2 C2 E2 | DEFD EF G2- | GF F4 E2 | F8 | %9
w: |I|goe be- fore my|dar- * * * * * *|* * ling,|I goe be-|fore _ _ _ my _ dar-||ling,|
 c4 F2 A2 | G2 B2 AGFE | DE F4 E2 | F2 f2 c2 e2 | d3 f e2 c2- | c2 =B2 c2 c2 | F2 A2 GA B2- | %16
w: I goe be-|fore my dar- * * *||ling, I goe be-|fore my dar- *|* * ling, I|goe be- fore my dar|
 BA AG/F/ G4 | A4 c2 c2 | A2 AB c4 | z2 F3 C _E2 | D4 C4 | FGAB c2 A2 | FGAB c2 A2 | z2 F2 E2 G2 | %24
w: _ _ _ _ _ _|ling, fol- low|thou to the bowr|in the close|al- lay,|ther wee will to- geth- er,|sweet- ly kisse each ey- ther,|and like two|
 G2 ^F2 G4 |[M:6/4] z12 | c6 A2 B2 G2 | A3 G F2 A2 G4 | C8 C2 D2 |"^-natural" _E2 C2 D2 E2 F4 | %30
w: wan- * tons,||dal- ly dal- ly|dal- ly dal- ly dal-|ly, dal- lu|dal- ly dal- ly dal-|
"^b" C4 F6 E2 |"^-natural" D2 F2 E2 D2 E4 |[M:4/4] F4 z2 FG | AB c2 A2 FG | AB c2 A2 A2 | %35
w: ly dal- ly|dal- ly dal- ly dal-|ly, ther wee|will to- ge- ther sweetly kisse|each _ ey- ther, and|
 G2 B2 A4 |[M:6/4] G8 z4 | c6 A2 B2 G2 |"^-natural" A6 F2 G2 E2 | F3 G A2 c2 =B4 | c8 z4 | %41
w: like two wan-|tons,|dal- ly dal- ly|dal- ly dal- ly|dal- ly dal- ly dal-|ly|
 G2 A2 B2 G2 A2 B2 | c6 B2 A2 G2 | B2 A2 G2 F2 G4 | A12 |] %45
w: dal- ly dal- ly dal- ly|dal- ly dal- ly|dal- ly dal- ly dal-|ly.|

